src/status/symbolic/channel-secure-symbolic.svg

<?xml version="1.0" encoding="UTF-8" standalone="no"?>
<svg
   xmlns:dc="http://purl.org/dc/elements/1.1/"
   xmlns:cc="http://creativecommons.org/ns#"
   xmlns:rdf="http://www.w3.org/1999/02/22-rdf-syntax-ns#"
   xmlns:svg="http://www.w3.org/2000/svg"
   xmlns="http://www.w3.org/2000/svg"
   id="svg6"
   version="1.1"
   width="16"
   height="16">
  <metadata
     id="metadata12">
    <rdf:RDF>
      <cc:Work
         rdf:about="">
        <dc:format>image/svg+xml</dc:format>
        <dc:type
           rdf:resource="http://purl.org/dc/dcmitype/StillImage" />
      </cc:Work>
    </rdf:RDF>
  </metadata>
  <defs
     id="defs10" />
  <path
     id="rect986-3"
     d="M 8 1.0039062 A 4 4 0 0 0 4 5.0039062 L 4 7.0039062 L 3 7.0039062 L 3 8.5058594 L 3 11.003906 L 3 12.503906 C 3 13.334906 3.669 14.003906 4.5 14.003906 L 11.5 14.003906 C 12.331 14.003906 13 13.334906 13 12.503906 L 13 11.003906 L 13 8.5058594 L 13 7.0039062 L 12 7.0039062 L 12 5.0039062 A 4 4 0 0 0 8 1.0039062 z M 8 2.0039062 A 3 3 0 0 1 11 5.0039062 L 11 7.0039062 L 10 7.0039062 L 10 5.0039062 A 2 2 0 0 0 8 3.0039062 A 2 2 0 0 0 6 5.0039062 L 6 7.0039062 L 5 7.0039062 L 5 5.0039062 A 3 3 0 0 1 8 2.0039062 z M 8 4.0039062 A 1 1 0 0 1 9 5.0039062 L 9 7.0039062 L 7 7.0039062 L 7 5.0039062 A 1 1 0 0 1 8 4.0039062 z M 4 8.0039062 L 12 8.0039062 L 12 9.7539062 L 12 11.003906 L 12 12.253906 C 12 12.669406 11.6655 13.003906 11.25 13.003906 L 4.75 13.003906 C 4.3345 13.003906 4 12.669406 4 12.253906 L 4 11.003906 L 4 9.7539062 L 4 8.0039062 z "
     style="opacity:1;vector-effect:none;fill:#68b723;fill-opacity:1;stroke:none;stroke-width:0.99199998;stroke-linecap:square;stroke-linejoin:miter;stroke-miterlimit:4;stroke-dasharray:none;stroke-dashoffset:0;stroke-opacity:1"
     class="success" />
  <path
     id="rect871-6-6"
     d="M 4 8.0039062 L 4 9.7539062 L 4 11.003906 L 4 12.253906 C 4 12.669406 4.3345 13.003906 4.75 13.003906 L 11.25 13.003906 C 11.6655 13.003906 12 12.669406 12 12.253906 L 12 11.003906 L 12 9.7539062 L 12 8.0039062 L 4 8.0039062 z "
     style="opacity:0.5;vector-effect:none;fill:#68b723;fill-opacity:1;stroke:none;stroke-width:0.99199998;stroke-linecap:square;stroke-linejoin:miter;stroke-miterlimit:4;stroke-dasharray:none;stroke-dashoffset:0;stroke-opacity:1;font-variant-east_asian:normal"
     class="success" />
</svg>

<svg version="1.1" viewBox="0 0 16 16" xmlns="http://www.w3.org/2000/svg">
 <path class="success" d="m8 1.0039a4 4 0 0 0-4 4v2h-1v1.502 2.498 1.5c0 0.831 0.669 1.5 1.5 1.5h7c0.831 0 1.5-0.669 1.5-1.5v-1.5-2.498-1.502h-1v-2a4 4 0 0 0-4-4zm0 1a3 3 0 0 1 3 3v2h-1v-2a2 2 0 0 0-2-2 2 2 0 0 0-2 2v2h-1v-2a3 3 0 0 1 3-3zm0 2a1 1 0 0 1 1 1v2h-2v-2a1 1 0 0 1 1-1zm-4 4h8v1.75 1.25 1.25c0 0.4155-0.3345 0.75-0.75 0.75h-6.5c-0.4155 0-0.75-0.3345-0.75-0.75v-1.25-1.25-1.75z" fill="#68b723"/>
 <path class="success" d="m4 8.0039v1.75 1.25 1.25c0 0.4155 0.3345 0.75 0.75 0.75h6.5c0.4155 0 0.75-0.3345 0.75-0.75v-1.25-1.25-1.75h-8z" fill="#68b723" opacity=".5" style="font-variant-east_asian:normal"/>
</svg>
